!!!!SEGMENT: pl-sa--l-1643--009_anonim--sancta-maria-succurre-miseris.krn
!!!cenid: 16xx:1364
!!!COM: Anonim
!!!COM-rismID: pe30004985
!!!CDT:
!!!CNT:
!!!OTL: Sancta Maria succurre miseris
!!!PDT:
!!!AGN: Sacred
!!!YEC: Copyright 2022 Narodowy Instytut Fryderyka Chopina (https://polishscores.org)
!!!YEM: License CC-BY-4.0 (https://creativecommons.org/licenses/by/4.0)
!!!SMS-siglum: PL-SA
!!!SMS-shelfmark: L 1643
!!!SMS-shelfwork: 009 W
!!!SMS-variant:
!!!SMS-altvar:
!!!NIFC-rismSourceID: 1001064741
!!!NIFC-rismChildID: 1001064741
!!!NIFC-islandoraID:
!!!URL-pdf-islandora:
!!!URL-scan:
!!!IIIF:
!!!ONB-nifc: UWAGA: 8 ksiąg. Primi chori: 1mus Cantus (brak), C 2dus (30-31), C 3tius (brak), Bassus (s. 44-45); Secondi chori: Primus Cantus (brak), C 2dus (brak), Altus (s. 42-43), Bassus (s. 42). UWAGA: metrum 2/2
!!!AIN: 2 alto 1 mezzo 1 soprn
!!!key: G:mix
**kern	**text	**kern	**text	**kern	**kern	**kern	**text	**kern	**kern	**text	**kern
*group2	*	*group2	*	*group2	*group2	*group1	*	*group1	*group1	*	*group1
*part8	*	*part7	*	*part6	*part5	*part4	*	*part3	*part2	*	*part1
*staff8	*	*staff7	*	*staff6	*staff5	*staff4	*	*staff3	*staff2	*	*staff1
*I"Baſsus 2di Chori	*	*I"Altus secundi Chori.	*	*I"Cantus 2dus Secundi Chori.	*I"Primus Cantus 2di Chori	*I"Bassus Primi Chori.	*	*I"Cantus 3tius Primi Chori	*I"Cantus 2dus Primi Chori.	*	*I"Im(us) Cantus Primi Chori
*I'Coro 2: B	*	*I'Coro 2: A	*	*I'Coro 2: S 2	*I'Coro 2: S 1	*I'Coro 1: B	*	*I'Coro 1: S 3	*I'Coro 1: S 2	*	*I'Coro 1: S 1
*Ialto	*	*Imezzo	*	*	*	*Ialto	*	*	*Isoprn	*	*
*ICvox	*	*ICvox	*	*	*	*ICvox	*	*	*ICvox	*	*
*clefC3	*	*clefC2	*	*clefC1	*clefC1	*clefC3	*	*clefC1	*clefC1	*	*clefC1
*k[]	*	*k[]	*	*k[]	*k[]	*k[]	*	*k[]	*k[]	*	*k[]
*G:mix	*	*G:mix	*	*G:mix	*G:mix	*G:mix	*	*G:mix	*G:mix	*	*G:mix
*M2/2	*	*M2/2	*	*M2/2	*M2/2	*M2/2	*	*M2/2	*M2/2	*	*M2/2
*met(C|)	*	*met(C|)	*	*met(C|)	*met(C|)	*met(C|)	*	*met(C|)	*met(C|)	*	*met(C|)
=1-	=1-	=1-	=1-	=1-	=1-	=1-	=1-	=1-	=1-	=1-	=1-
!LO:TX:t=De B V M A 8 V	!	!	!	!LO:TX:t=P:problem:brak źródła	!LO:TX:t=P:problem:brak źródła	!	!	!LO:TX:t=P:problem:brak źródła	!	!	!LO:TX:t=P:problem:brak źródła
0r	.	0r	.	1ryy	1ryy	1g	San-	1ryy	1b	San-	1ryy
=2-	=2-	=2-	=2-	=2-	=2-	=2-	=2-	=2-	=2-	=2-	=2-
.	.	.	.	1ryy	1ryy	2c/	-cta	1ryy	2cc\	-cta	1ryy
.	.	.	.	.	.	2e\	ma-	.	4b\	ma-	.
.	.	.	.	.	.	.	.	.	4cc\	.	.
=3-	=3-	=3-	=3-	=3-	=3-	=3-	=3-	=3-	=3-	=3-	=3-
1r	.	1r	.	1ryy	1ryy	1d	-ri-	1ryy	1dd	-ri-	1ryy
=4-	=4-	=4-	=4-	=4-	=4-	=4-	=4-	=4-	=4-	=4-	=4-
2r	.	2r	.	1ryy	1ryy	1G	-a	1ryy	1dd	-a	1ryy
2G/	San-	2g\	San-	.	.	.	.	.	.	.	.
=5-	=5-	=5-	=5-	=5-	=5-	=5-	=5-	=5-	=5-	=5-	=5-
2c/	-cta	2g\	-cta	1ryy	1ryy	0r	.	1ryy	0r	.	1ryy
*custos:B	*	*	*	*	*	*	*	*	*	*	*
!LO:LB:g=original	!	!	!	!	!	!	!	!	!	!	!
2B/	ma-	2d/	ma-	.	.	.	.	.	.	.	.
=6-	=6-	=6-	=6-	=6-	=6-	=6-	=6-	=6-	=6-	=6-	=6-
1A	-ri-	2.e/	-ri-	1ryy	1ryy	.	.	1ryy	.	.	1ryy
.	.	4f\	.	.	.	.	.	.	.	.	.
=7-	=7-	=7-	=7-	=7-	=7-	=7-	=7-	=7-	=7-	=7-	=7-
1G	-a	1g	-a	1ryy	1ryy	1r	.	1ryy	1r	.	1ryy
=8-	=8-	=8-	=8-	=8-	=8-	=8-	=8-	=8-	=8-	=8-	=8-
!	!	!	!	!	!	!LO:SIC:v:s:l=Suc-	!	!	!	!	!
00r	.	00r	.	1ryy	1ryy	1g	Su-	1ryy	1b	ſuc-	1ryy
=9-	=9-	=9-	=9-	=9-	=9-	=9-	=9-	=9-	=9-	=9-	=9-
!	!	!	!	!	!	!LO:SIC:v:s:l=-cur-	!	!	!	!	!
.	.	.	.	1ryy	1ryy	2f\	-cu-	1ryy	2cc\	-cur-	1ryy
.	.	.	.	.	.	2d\	-re	.	2dd\	-re	.
=10-	=10-	=10-	=10-	=10-	=10-	=10-	=10-	=10-	=10-	=10-	=10-
!	!	!	!	!	!	!	!	!	!LO:TX:t=P:problem:# below	!	!
.	.	.	.	1ryy	1ryy	2.A/	mi-	1ryy	2.cc#X\	mi-	1ryy
.	.	.	.	.	.	4A/	-se-	.	4cc#\	-se-	.
=11-	=11-	=11-	=11-	=11-	=11-	=11-	=11-	=11-	=11-	=11-	=11-
.	.	.	.	1ryy	1ryy	1d	-ris	1ryy	1dd	-ris	1ryy
*	*	*	*	*	*	*custos:c	*	*	*	*	*
=12-	=12-	=12-	=12-	=12-	=12-	=12-	=12-	=12-	=12-	=12-	=12-
!	!	!	!	!	!	!LO:LB:g=original	!	!	!	!	!
1G	iu-	1g	iu-	1ryy	1ryy	1r	.	1ryy	1r	.	1ryy
=13-	=13-	=13-	=13-	=13-	=13-	=13-	=13-	=13-	=13-	=13-	=13-
2c/	-ua	2g\	-ua	1ryy	1ryy	2r	.	1ryy	2r	.	1ryy
2r	.	2r	.	.	.	1c	Pu-	.	1ccny\	pu-	.
=14-	=14-	=14-	=14-	=14-	=14-	=14-	=14-	=14-	=14-	=14-	=14-
0r	.	0r	.	1ryy	1ryy	.	.	1ryy	.	.	1ryy
.	.	.	.	.	.	2c/	-sil-	.	2cc\	-sil-	.
=15-	=15-	=15-	=15-	=15-	=15-	=15-	=15-	=15-	=15-	=15-	=15-
.	.	.	.	1ryy	1ryy	2.G/	-la-	1ryy	[y2b\	-la-	1ryy
*	*	*	*	*	*	*	*	*	*custos:b	*	*
!	!	!	!	!	!	!	!	!	!LO:LB:g=original	!	!
!	!	!	!	!	!	!	!	!	!LO:N:xstem:cue	!	!
.	.	.	.	.	.	.	.	.	4b]	.	.
.	.	.	.	.	.	4G/	-ni-	.	4b\	-ni-	.
=16-	=16-	=16-	=16-	=16-	=16-	=16-	=16-	=16-	=16-	=16-	=16-
1r	.	1r	.	1ryy	1ryy	1c	-mes	1ryy	1cc	-mes	1ryy
*	*	*custos:g	*	*	*	*	*	*	*	*	*
=17-	=17-	=17-	=17-	=17-	=17-	=17-	=17-	=17-	=17-	=17-	=17-
!	!	!LO:LB:g=original	!	!	!	!LO:TX:t=P:problem:usunięta 00r	!	!	!	!	!
1c	iu-	1g	iu-	1ryy	1ryy	1r	.	1ryy	1r	.	1ryy
=18-	=18-	=18-	=18-	=18-	=18-	=18-	=18-	=18-	=18-	=18-	=18-
2c/	-ua	2g\	-ua	1ryy	1ryy	2r	.	1ryy	1ryy	.	1ryy
*	*	*	*	*	*	*	*ij	*	*	*	*
2r	.	2r	.	.	.	1c\	Pu-	.	.	.	.
=19-	=19-	=19-	=19-	=19-	=19-	=19-	=19-	=19-	=19-	=19-	=19-
0r	.	0r	.	1ryy	1ryy	.	.	1ryy	1ryy	.	1ryy
.	.	.	.	.	.	2c/	-sil-	.	.	.	.
=20-	=20-	=20-	=20-	=20-	=20-	=20-	=20-	=20-	=20-	=20-	=20-
.	.	.	.	1ryy	1ryy	2.f\	-la-	1ryy	1ryy	.	1ryy
.	.	.	.	.	.	4f\	-ni-	.	.	.	.
=21-	=21-	=21-	=21-	=21-	=21-	=21-	=21-	=21-	=21-	=21-	=21-
1r	.	1r	.	1ryy	1ryy	1c	-mes	1ryy	1ryy	.	1ryy
=22-	=22-	=22-	=22-	=22-	=22-	=22-	=22-	=22-	=22-	=22-	=22-
1d	iu-	1a	iu-	1ryy	1ryy	1r	.	1ryy	1ryy	.	1ryy
=23-	=23-	=23-	=23-	=23-	=23-	=23-	=23-	=23-	=23-	=23-	=23-
2d\	-ua	2a\	-ua	1ryy	1ryy	2r	.	1ryy	2r	.	1ryy
2r	.	2r	.	.	.	1d	Pu-	.	1dd	pu-	.
=24-	=24-	=24-	=24-	=24-	=24-	=24-	=24-	=24-	=24-	=24-	=24-
0r	.	0r	.	1ryy	1ryy	.	.	1ryy	.	.	1ryy
!	!	!	!	!	!	!	!	!	!LO:SIC:v:s:l=-sil-	!	!
.	.	.	.	.	.	2d\	-sil-	.	2dd\	-sl-	.
=25-	=25-	=25-	=25-	=25-	=25-	=25-	=25-	=25-	=25-	=25-	=25-
!	!	!	!	!	!	!	!	!	!LO:TX:t=P:problem:# below	!	!
.	.	.	.	1ryy	1ryy	2.A/	-la-	1ryy	2.cc#X\	-la-	1ryy
.	.	.	.	.	.	4A/	-ni-	.	4cc#\	-ni-	.
=26-	=26-	=26-	=26-	=26-	=26-	=26-	=26-	=26-	=26-	=26-	=26-
2r	.	2r	.	1ryy	1ryy	2d\	-mes	1ryy	2dd\	-mes	1ryy
2g\	re-	2g\	re-	.	.	2r	.	.	2r	.	.
*	*	*	*	*	*	*	*Xij	*	*	*	*
=27-	=27-	=27-	=27-	=27-	=27-	=27-	=27-	=27-	=27-	=27-	=27-
1g	-fo-	1g	-fo-	1ryy	1ryy	2r	.	1ryy	2r	.	1ryy
.	.	.	.	.	.	[y2G/	re-	.	[y2dd\	re-	.
=28-	=28-	=28-	=28-	=28-	=28-	=28-	=28-	=28-	=28-	=28-	=28-
!	!	!	!	!	!	!LO:N:xstem:cue	!	!	!LO:N:xstem:cue	!	!
1g	-ue	1d	-ue	1ryy	1ryy	4G/]	.	1ryy	4dd\]	.	1ryy
.	.	.	.	.	.	4G/	-fo-	.	4b\	-fo-	.
.	.	.	.	.	.	2G/	-ue	.	2b\	-ue	.
=29-	=29-	=29-	=29-	=29-	=29-	=29-	=29-	=29-	=29-	=29-	=29-
4c/	fle-	2.g\	fle-	1ryy	1ryy	[y2c/	fle-	1ryy	2.ccny\	fle-	1ryy
4d\	.	.	.	.	.	.	.	.	.	.	.
*	*	*	*	*	*	*custos:c	*	*	*	*	*
!	!	!	!	!	!	!LO:LB:g=original	!	!	!	!	!
!	!	!	!	!	!	!LO:N:xstem:cue	!	!	!	!	!
4e\	-bi-	.	.	.	.	4c/]	.	.	.	.	.
4f\	.	4g\	-bi-	.	.	4c/	-bi-	.	4cc\	-bi-	.
=30-	=30-	=30-	=30-	=30-	=30-	=30-	=30-	=30-	=30-	=30-	=30-
!	!	!LO:TX:t=P:problem:kreska pseudotaktowa przerywana	!	!	!	!LO:TX:t=P:problem:kreska pseudotaktowa przerywana	!	!	!LO:TX:t=P:problem:kreska pseudotaktowa przerywana	!	!
1g	-les	1d	-les	1ryy	1ryy	1G	-les	1ryy	1b	-les?	1ryy
=31-	=31-	=31-	=31-	=31-	=31-	=31-	=31-	=31-	=31-	=31-	=31-
00r	.	00r	.	1ryy	1ryy	00r	.	1ryy	00r	.	1ryy
=32-	=32-	=32-	=32-	=32-	=32-	=32-	=32-	=32-	=32-	=32-	=32-
.	.	.	.	1ryy	1ryy	.	.	1ryy	.	.	1ryy
=33-	=33-	=33-	=33-	=33-	=33-	=33-	=33-	=33-	=33-	=33-	=33-
.	.	.	.	1ryy	1ryy	.	.	1ryy	.	.	1ryy
=34-	=34-	=34-	=34-	=34-	=34-	=34-	=34-	=34-	=34-	=34-	=34-
.	.	.	.	1ryy	1ryy	.	.	1ryy	.	.	1ryy
=35-	=35-	=35-	=35-	=35-	=35-	=35-	=35-	=35-	=35-	=35-	=35-
1g	O-	1d	O-	1ryy	1ryy	1G	o-	1ryy	2.b\	O-	1ryy
.	.	.	.	.	.	.	.	.	4cc\	-ra	.
=36-	=36-	=36-	=36-	=36-	=36-	=36-	=36-	=36-	=36-	=36-	=36-
2d\	-ra	2d/	-ra	1ryy	1ryy	2d\	-ra	1ryy	2dd\	pro	1ryy
*custos:g	*	*	*	*	*	*	*	*	*	*	*
!LO:LB:g=original	!	!	!	!	!	!	!	!	!	!	!
2g\	Pro	2d/	pro	.	.	2G/	pro	.	2dd\	po-	.
=37-	=37-	=37-	=37-	=37-	=37-	=37-	=37-	=37-	=37-	=37-	=37-
2.c/	Po-	2.g\	po-	1ryy	1ryy	2.c/	po-	1ryy	2.cc\	-pu-	1ryy
4c/	-pu-	4g\	-pu-	.	.	4c/	-pu-	.	4cc\	-lo	.
=38-	=38-	=38-	=38-	=38-	=38-	=38-	=38-	=38-	=38-	=38-	=38-
1g	-lo	1d	-lo	1ryy	1ryy	1G	-lo	1ryy	1dd	.	1ryy
=39-	=39-	=39-	=39-	=39-	=39-	=39-	=39-	=39-	=39-	=39-	=39-
00r	.	00r	.	1ryy	1ryy	00r	.	1ryy	00r	.	1ryy
=40-	=40-	=40-	=40-	=40-	=40-	=40-	=40-	=40-	=40-	=40-	=40-
.	.	.	.	1ryy	1ryy	.	.	1ryy	.	.	1ryy
=41-	=41-	=41-	=41-	=41-	=41-	=41-	=41-	=41-	=41-	=41-	=41-
.	.	.	.	1ryy	1ryy	.	.	1ryy	.	.	1ryy
=42-	=42-	=42-	=42-	=42-	=42-	=42-	=42-	=42-	=42-	=42-	=42-
.	.	.	.	1ryy	1ryy	.	.	1ryy	.	.	1ryy
=43-	=43-	=43-	=43-	=43-	=43-	=43-	=43-	=43-	=43-	=43-	=43-
2c/	in-	2g\	in-	1ryy	1ryy	00r	.	1ryy	00r	.	1ryy
2c/	-ter-	2g\	-ter-	.	.	.	.	.	.	.	.
=44-	=44-	=44-	=44-	=44-	=44-	=44-	=44-	=44-	=44-	=44-	=44-
2.A/	-ue-	1a	-ue-	1ryy	1ryy	.	.	1ryy	.	.	1ryy
4B/	.	.	.	.	.	.	.	.	.	.	.
=45-	=45-	=45-	=45-	=45-	=45-	=45-	=45-	=45-	=45-	=45-	=45-
2c/	-ni	2g\	-ni	1ryy	1ryy	.	.	1ryy	.	.	1ryy
*	*	*custos:g	*	*	*	*	*	*	*	*	*
!	!	!LO:LB:g=original	!	!	!	!	!	!	!	!	!
2c/	pro	2g\	pro	.	.	.	.	.	.	.	.
=46-	=46-	=46-	=46-	=46-	=46-	=46-	=46-	=46-	=46-	=46-	=46-
!	!	!LO:TX:t=P:problem:# below	!	!	!	!	!	!	!	!	!
1d	cle-	1f#X	cle-	1ryy	1ryy	.	.	1ryy	.	.	1ryy
=47-	=47-	=47-	=47-	=47-	=47-	=47-	=47-	=47-	=47-	=47-	=47-
1c	-ro	2g\	-ro	1ryy	1ryy	2r	.	1ryy	2r	.	1ryy
.	.	2r	.	.	.	1c	in-	.	1cc	in-	.
=48-	=48-	=48-	=48-	=48-	=48-	=48-	=48-	=48-	=48-	=48-	=48-
0r	.	1r	.	1ryy	1ryy	.	.	1ryy	.	.	1ryy
.	.	.	.	.	.	2g\	-ter-	.	2dd\	-ter-	.
=49-	=49-	=49-	=49-	=49-	=49-	=49-	=49-	=49-	=49-	=49-	=49-
.	.	1ryy	.	1ryy	1ryy	4c/	-ce-	1ryy	1cc	-ce-	1ryy
.	.	.	.	.	.	4d\	-de	.	.	.	.
.	.	.	.	.	.	4e\	.	.	.	.	.
.	.	.	.	.	.	4f\	.	.	.	.	.
=50-	=50-	=50-	=50-	=50-	=50-	=50-	=50-	=50-	=50-	=50-	=50-
2r	.	2r	.	1ryy	1ryy	2g\	.	1ryy	2b\	-de	1ryy
1c	in-	1g	i[n]-	.	.	2r	.	.	2r	.	.
*	*	*	*	*	*	*	*	*	*custos:cc	*	*
=51-	=51-	=51-	=51-	=51-	=51-	=51-	=51-	=51-	=51-	=51-	=51-
!	!	!	!	!	!	!	!	!	!LO:LB:g=original	!	!
.	.	.	.	1ryy	1ryy	0r	.	1ryy	0r	.	1ryy
2g\	-ter-	2g\	-ter-	.	.	.	.	.	.	.	.
=52-	=52-	=52-	=52-	=52-	=52-	=52-	=52-	=52-	=52-	=52-	=52-
4c/	-ce-	1g	-ce-	1ryy	1ryy	.	.	1ryy	.	.	1ryy
4d\	.	.	.	.	.	.	.	.	.	.	.
4e\	.	.	.	.	.	.	.	.	.	.	.
4f\	.	.	.	.	.	.	.	.	.	.	.
=53-	=53-	=53-	=53-	=53-	=53-	=53-	=53-	=53-	=53-	=53-	=53-
2g\	-de	2g\	-de	1ryy	1ryy	2r	.	1ryy	2r	.	1ryy
2r	.	2r	.	.	.	1c	in-	.	1cc	in-	.
=54-	=54-	=54-	=54-	=54-	=54-	=54-	=54-	=54-	=54-	=54-	=54-
0r	.	0r	.	1ryy	1ryy	.	.	1ryy	.	.	1ryy
.	.	.	.	.	.	2g\	-ter-	.	2dd\	-ter-	.
=55-	=55-	=55-	=55-	=55-	=55-	=55-	=55-	=55-	=55-	=55-	=55-
.	.	.	.	1ryy	1ryy	4c/	-ce-	1ryy	1cc	-ce-	1ryy
.	.	.	.	.	.	4d\	.	.	.	.	.
*	*	*	*	*	*	*custos:e	*	*	*	*	*
!	!	!	!	!	!	!LO:LB:g=original	!	!	!	!	!
.	.	.	.	.	.	4e\	.	.	.	.	.
.	.	.	.	.	.	4f\	.	.	.	.	.
=56-	=56-	=56-	=56-	=56-	=56-	=56-	=56-	=56-	=56-	=56-	=56-
2r	.	2r	.	1ryy	1ryy	2g\	-de	1ryy	2b\	-de,	1ryy
2G/	pro	2g\	Pro	.	.	2r	.	.	2r	.	.
=57-	=57-	=57-	=57-	=57-	=57-	=57-	=57-	=57-	=57-	=57-	=57-
[y2c/	de-	2.g\	de-	1ryy	1ryy	0r	.	1ryy	1r	.	1ryy
*custos:c	*	*	*	*	*	*	*	*	*	*	*
!LO:LB:g=original	!	!	!	!	!	!	!	!	!	!	!
!LO:N:xstem:cue	!	!	!	!	!	!	!	!	!	!	!
4c/]	.	.	.	.	.	.	.	.	.	.	.
4c/	-uo-	4g\	-uo-	.	.	.	.	.	.	.	.
=58-	=58-	=58-	=58-	=58-	=58-	=58-	=58-	=58-	=58-	=58-	=58-
2G/	-to	2g\	-to	1ryy	1ryy	.	.	1ryy	1ryy	.	1ryy
2r	.	2r	.	.	.	.	.	.	.	.	.
=59-	=59-	=59-	=59-	=59-	=59-	=59-	=59-	=59-	=59-	=59-	=59-
0r	.	0r	.	1ryy	1ryy	2r	.	1ryy	2r	.	1ryy
.	.	.	.	.	.	1c	fe-	.	1cc	fe-	.
=60-	=60-	=60-	=60-	=60-	=60-	=60-	=60-	=60-	=60-	=60-	=60-
.	.	.	.	1ryy	1ryy	.	.	1ryy	.	.	1ryy
.	.	.	.	.	.	2c/	-mi-	.	2cc\	-mi-	.
=61-	=61-	=61-	=61-	=61-	=61-	=61-	=61-	=61-	=61-	=61-	=61-
1r	.	1r	.	1ryy	1ryy	2f\	-ne-	1ryy	2cc\	-ne-	1ryy
.	.	.	.	.	.	2c/	-o	.	[y2cc\	-o	.
=62-	=62-	=62-	=62-	=62-	=62-	=62-	=62-	=62-	=62-	=62-	=62-
!	!	!	!	!	!	!	!	!	!LO:N:xstem:cue	!	!
1ryy	.	1ryy	.	1ryy	1ryy	1G	se-	1ryy	4cc\]	.	1ryy
.	.	.	.	.	.	.	.	.	8b\L	se-	.
.	.	.	.	.	.	.	.	.	8a\J	.	.
.	.	.	.	.	.	.	.	.	2b\	-xu,	.
=63-	=63-	=63-	=63-	=63-	=63-	=63-	=63-	=63-	=63-	=63-	=63-
2r	.	2r	.	1ryy	1ryy	2c/	-xu	1ryy	2cc\	.	1ryy
2c/	Pro	2g\	pro	.	.	2r	.	.	2r	.	.
=64-	=64-	=64-	=64-	=64-	=64-	=64-	=64-	=64-	=64-	=64-	=64-
2.G/	de-	2.g\	de-	1ryy	1ryy	1r	.	1ryy	1r	.	1ryy
4G/	-uo-	4g\	-uo-	.	.	.	.	.	.	.	.
=65-	=65-	=65-	=65-	=65-	=65-	=65-	=65-	=65-	=65-	=65-	=65-
2c/	-to	2g\	-to	1ryy	1ryy	2r	.	1ryy	2r	.	1ryy
2r	.	2r	.	.	.	1g	fe-	.	1dd\	fe-	.
=66-	=66-	=66-	=66-	=66-	=66-	=66-	=66-	=66-	=66-	=66-	=66-
0r	.	0r	.	1ryy	1ryy	.	.	1ryy	.	.	1ryy
.	.	.	.	.	.	2e\	-mi-	.	2ee\	-mi-	.
=67-	=67-	=67-	=67-	=67-	=67-	=67-	=67-	=67-	=67-	=67-	=67-
.	.	.	.	1ryy	1ryy	2f\	-ne-	1ryy	2cc\	-ne-	1ryy
.	.	.	.	.	.	2c/	-o	.	[y2cc\	-o	.
=68-	=68-	=68-	=68-	=68-	=68-	=68-	=68-	=68-	=68-	=68-	=68-
!	!	!	!	!	!	!	!	!	!LO:N:xstem:cue	!	!
1r	.	1r	.	1ryy	1ryy	1G	se-	1ryy	4cc\]	.	1ryy
.	.	.	.	.	.	.	.	.	8b\L	.	.
.	.	.	.	.	.	.	.	.	8a\J	.	.
.	.	.	.	.	.	.	.	.	2b\	se-	.
=69-	=69-	=69-	=69-	=69-	=69-	=69-	=69-	=69-	=69-	=69-	=69-
2r	.	2r	.	1ryy	1ryy	2c/	-xu	1ryy	2cc\	-xu,	1ryy
[y2g\	Sen-	[y2g\	Sen-	.	.	2r	.	.	2r	.	.
=70-	=70-	=70-	=70-	=70-	=70-	=70-	=70-	=70-	=70-	=70-	=70-
!LO:N:xstem:cue	!	!LO:N:xstem:cue	!	!	!	!	!	!	!	!	!
4g\]	.	4g\]	.	1ryy	1ryy	0r	.	1ryy	0r	.	1ryy
4g\	-ti-	4g\	-ci-	.	.	.	.	.	.	.	.
*	*	*custos:g	*	*	*	*	*	*	*	*	*
!	!	!LO:PB:g=original	!	!	!	!	!	!	!	!	!
2g\	-ant	2g\	-at	.	.	.	.	.	.	.	.
=71-	=71-	=71-	=71-	=71-	=71-	=71-	=71-	=71-	=71-	=71-	=71-
4c/	om-	1g	om-	1ryy	1ryy	.	.	1ryy	.	.	1ryy
4d\	.	.	.	.	.	.	.	.	.	.	.
4e\	.	.	.	.	.	.	.	.	.	.	.
4f\	.	.	.	.	.	.	.	.	.	.	.
=72-	=72-	=72-	=72-	=72-	=72-	=72-	=72-	=72-	=72-	=72-	=72-
2g\	-nes	2g\	-nes	1ryy	1ryy	2r	.	1ryy	2r	.	1ryy
2r	.	2r	.	.	.	2g\	tu-	.	2b\	tu-	.
=73-	=73-	=73-	=73-	=73-	=73-	=73-	=73-	=73-	=73-	=73-	=73-
!	!	!	!	!	!	!	!	!	!LO:SIC:v:s:l=-um	!	!
0r	.	0r	.	1ryy	1ryy	2c/	-um	1ryy	2cc\	-am	1ryy
.	.	.	.	.	.	2G/	iu-	.	2dd\	iu-	.
*	*	*	*	*	*	*custos:d	*	*	*	*	*
=74-	=74-	=74-	=74-	=74-	=74-	=74-	=74-	=74-	=74-	=74-	=74-
!	!	!	!	!	!	!LO:LB:g=original	!	!	!	!	!
.	.	.	.	1ryy	1ryy	1d	-va-	1ryy	1a	-ua-	1ryy
=75-	=75-	=75-	=75-	=75-	=75-	=75-	=75-	=75-	=75-	=75-	=75-
2r	.	2r	.	1ryy	1ryy	2G/	-men	1ryy	2b\	-men	1ryy
[y2c/	Sen-	[y2g\	Sen-	.	.	2r	.	.	2r	.	.
=76-	=76-	=76-	=76-	=76-	=76-	=76-	=76-	=76-	=76-	=76-	=76-
!LO:N:xstem:cue	!	!LO:N:xstem:cue	!	!	!	!	!	!	!	!	!
4c/]	.	4g\]	.	1ryy	1ryy	0r	.	1ryy	0r	.	1ryy
4c/	-ti-	4g\	-ci-	.	.	.	.	.	.	.	.
2c/	-ant	2g\	-at	.	.	.	.	.	.	.	.
=77-	=77-	=77-	=77-	=77-	=77-	=77-	=77-	=77-	=77-	=77-	=77-
4F/	om-	1a	om-	1ryy	1ryy	.	.	1ryy	.	.	1ryy
4G/	.	.	.	.	.	.	.	.	.	.	.
4A/	.	.	.	.	.	.	.	.	.	.	.
4B/	.	.	.	.	.	.	.	.	.	.	.
*custos:c	*	*	*	*	*	*	*	*	*	*	*
=78-	=78-	=78-	=78-	=78-	=78-	=78-	=78-	=78-	=78-	=78-	=78-
!LO:LB:g=original	!	!	!	!	!	!	!	!	!	!	!
2c/	-nes	2g\	-nes	1ryy	1ryy	2r	.	1ryy	2r	.	1ryy
*	*	*	*	*	*	*	*ij	*	*custos:cc	*	*
!	!	!	!	!	!	!	!	!	!LO:PB:g=original	!	!
2r	.	2r	.	.	.	2c/	tu-	.	2cc\	tu-	.
=79-	=79-	=79-	=79-	=79-	=79-	=79-	=79-	=79-	=79-	=79-	=79-
0r	.	0r	.	1ryy	1ryy	2f\	-um	1ryy	2cc\	-um	1ryy
.	.	.	.	.	.	2c/	iu-	.	2cc\	iu-	.
=80-	=80-	=80-	=80-	=80-	=80-	=80-	=80-	=80-	=80-	=80-	=80-
.	.	.	.	1ryy	1ryy	1g	-va-	1ryy	1dd	-ua-	1ryy
=81-	=81-	=81-	=81-	=81-	=81-	=81-	=81-	=81-	=81-	=81-	=81-
2r	.	2r	.	1ryy	1ryy	2c/	-men	1ryy	2cc\	-men	1ryy
2g\	qui-	2g\	qui-	.	.	2r	.	.	2r	.	.
*	*	*	*	*	*	*	*Xij	*	*	*	*
=82-	=82-	=82-	=82-	=82-	=82-	=82-	=82-	=82-	=82-	=82-	=82-
!LO:SIC:v:s:l=-cum-	!	!LO:SIC:v:s:l=-cum-	!	!	!	!	!	!	!	!	!
4c/	-cun-	1g	-cun-	1ryy	1ryy	0r	.	1ryy	0r	.	1ryy
4d\	.	.	.	.	.	.	.	.	.	.	.
4e\	.	.	.	.	.	.	.	.	.	.	.
4f\	.	.	.	.	.	.	.	.	.	.	.
=83-	=83-	=83-	=83-	=83-	=83-	=83-	=83-	=83-	=83-	=83-	=83-
2g\	-que	2g\	-q(ue)	1ryy	1ryy	.	.	1ryy	.	.	1ryy
2r	.	2r	.	.	.	.	.	.	.	.	.
=84-	=84-	=84-	=84-	=84-	=84-	=84-	=84-	=84-	=84-	=84-	=84-
!	!	!LO:N:vis=0	!	!	!	!	!	!	!	!	!
1r	.	0r	.	1ryy	1ryy	2r	.	1ryy	2r	.	1ryy
.	.	.	.	.	.	2c/	qui-	.	2cc\	qui-	.
=85-	=85-	=85-	=85-	=85-	=85-	=85-	=85-	=85-	=85-	=85-	=85-
!	!	!	!	!	!	!	!	!	!LO:TX:t=P:problem:2cc poprawione na 1cc	!	!
1ryy	.	.	.	1ryy	1ryy	4F/	-cum-	1ryy	1cc	-cum-	1ryy
.	.	.	.	.	.	4G/	.	.	.	.	.
.	.	.	.	.	.	4A/	.	.	.	.	.
.	.	.	.	.	.	4B/	.	.	.	.	.
=86-	=86-	=86-	=86-	=86-	=86-	=86-	=86-	=86-	=86-	=86-	=86-
2r	.	2r	.	1ryy	1ryy	2c/	-que	1ryy	2cc\	-que	1ryy
2c/	qui-	2g\	qui-	.	.	2r	.	.	2r	.	.
=87-	=87-	=87-	=87-	=87-	=87-	=87-	=87-	=87-	=87-	=87-	=87-
!LO:SIC:v:s:l=-cum-	!	!LO:SIC:v:s:l=-cum-	!	!	!	!	!	!	!	!	!
1G	-cun-	1g	-cun-	1ryy	1ryy	1r	.	1ryy	1r	.	1ryy
=88-	=88-	=88-	=88-	=88-	=88-	=88-	=88-	=88-	=88-	=88-	=88-
2c/	-que	2g\	-q(ue)	1ryy	1ryy	2r	.	1ryy	2r	.	1ryy
2g\	Ce-	2d/	ce-	.	.	2G/	ce-	.	2dd\	ce-	.
=89-	=89-	=89-	=89-	=89-	=89-	=89-	=89-	=89-	=89-	=89-	=89-
4c/	-le-	1g	-le-	1ryy	1ryy	1c	-le-	1ryy	1cc	-le-	1ryy
4d\	.	.	.	.	.	.	.	.	.	.	.
4e\	.	.	.	.	.	.	.	.	.	.	.
4f\	.	.	.	.	.	.	.	.	.	.	.
*	*	*custos:g	*	*	*	*	*	*	*	*	*
=90-	=90-	=90-	=90-	=90-	=90-	=90-	=90-	=90-	=90-	=90-	=90-
!	!	!LO:LB:g=original	!	!	!	!	!	!	!	!	!
2g\	-brant	2g\	-brant	1ryy	1ryy	2G/	-brant	1ryy	2dd\	-brant	1ryy
2r	.	2r	.	.	.	1c	tu-	.	1cc\	tu-	.
=91-	=91-	=91-	=91-	=91-	=91-	=91-	=91-	=91-	=91-	=91-	=91-
0r	.	0r	.	1ryy	1ryy	.	.	1ryy	.	.	1ryy
.	.	.	.	.	.	2c/	-am	.	2cc\	-am	.
*	*	*	*	*	*	*custos:f	*	*	*	*	*
=92-	=92-	=92-	=92-	=92-	=92-	=92-	=92-	=92-	=92-	=92-	=92-
!	!	!	!	!	!	!LO:PB:g=original	!	!	!	!	!
.	.	.	.	1ryy	1ryy	1f	san-	1ryy	1cc	san-	1ryy
=93-	=93-	=93-	=93-	=93-	=93-	=93-	=93-	=93-	=93-	=93-	=93-
2r	.	2r	.	1ryy	1ryy	2c/	-ctam	1ryy	2cc\	-ctam,	1ryy
!	!	!LO:SIC:v:s:l=com-	!	!	!	!	!	!	!	!	!
2g\	com-	2g\	co-	.	.	2r	.	.	2r	.	.
=94-	=94-	=94-	=94-	=94-	=94-	=94-	=94-	=94-	=94-	=94-	=94-
2c/	-me-	2g\	-me-	1ryy	1ryy	0r	.	1ryy	0r	.	1ryy
2c/	-mo-	2g\	-mo-	.	.	.	.	.	.	.	.
=95-	=95-	=95-	=95-	=95-	=95-	=95-	=95-	=95-	=95-	=95-	=95-
2f\	-ra-	2a\	-ra-	1ryy	1ryy	.	.	1ryy	.	.	1ryy
2c/	-ti-	2g\	-ci-	.	.	.	.	.	.	.	.
*custos:G	*	*	*	*	*	*	*	*	*	*	*
=96-	=96-	=96-	=96-	=96-	=96-	=96-	=96-	=96-	=96-	=96-	=96-
!LO:LB:g=original	!	!	!	!	!	!	!	!	!	!	!
1G	-o-	1g	-o-	1ryy	1ryy	1r	.	1ryy	1r	.	1ryy
=97-	=97-	=97-	=97-	=97-	=97-	=97-	=97-	=97-	=97-	=97-	=97-
2c/	-nem	2g\	-nem	1ryy	1ryy	2r	.	1ryy	2r	.	1ryy
!	!	!LO:SIC:v:s:l=Com-	!	!	!	!LO:SIC:v:s:l=Com-	!	!	!LO:SIC:v:s:l=com-	!	!
2G/	com-	2g\	Co-	.	.	2g\	Co-	.	2b\	co-	.
=98-	=98-	=98-	=98-	=98-	=98-	=98-	=98-	=98-	=98-	=98-	=98-
2c/	-me-	2g\	-me-	1ryy	1ryy	2c/	-me-	1ryy	2cc\	-me-	1ryy
2g\	-mo-	2d/	-mo-	.	.	2G/	-mo-	.	2dd\	-mo-	.
=99-	=99-	=99-	=99-	=99-	=99-	=99-	=99-	=99-	=99-	=99-	=99-
2c/	-ra-	2g\	-ra-	1ryy	1ryy	2c/	-ra-	1ryy	2cc\	-ra-	1ryy
2g\	-ti-	2d/	-ci-	.	.	2G/	-ci-	.	2b\	-ti-	.
=100-	=100-	=100-	=100-	=100-	=100-	=100-	=100-	=100-	=100-	=100-	=100-
!	!	!LO:TX:t=P:problem:kreska pseudotaktowa przerywana	!	!	!	!LO:TX:t=P:problem:kreska pseudotaktowa przerywana	!	!	!	!	!
1d	-o-	1d	-o-	1ryy	1ryy	1c	-o-	1ryy	1a	-o-	1ryy
=101-	=101-	=101-	=101-	=101-	=101-	=101-	=101-	=101-	=101-	=101-	=101-
1gl	-nem	1dl	-nem	1ryy	1ryy	1Gl	-ne(m)	1ryy	1b;;l	-nem	1ryy
!	!	!LO:TX:b:t=de B.\nW\nM.	!	!	!	!LO:TX:b:t=D. B. V. M. A\n& V	!	!	!	!	!
==	==	==	==	==	==	==	==	==	==	==	==
*-	*-	*-	*-	*-	*-	*-	*-	*-	*-	*-	*-
!!!system-decoration: [(g1)][(g2)]
!!!RDF**kern: l = terminal long
!!!ENC: Katarzyna Serwa
!!!END: 2021-10-07
!!!ENC: Anastazja Marusiak
!!!END: 2021-09-28
